svgs/regular/keyboard-down.svg

<svg xmlns="http://www.w3.org/2000/svg" viewBox="0 0 576 512"><!--! Font Awesome Pro 6.0.0-alpha3 by @fontawesome - https://fontawesome.com License - https://fontawesome.com/license (Commercial License) --><path d="M276 136h24c6.656 0 12-5.344 12-12v-24c0-6.656-5.344-12-12-12h-24c-6.656 0-12 5.344-12 12v24C264 130.7 269.3 136 276 136zM356 136h24c6.656 0 12-5.344 12-12v-24c0-6.656-5.344-12-12-12h-24c-6.656 0-12 5.344-12 12v24C344 130.7 349.3 136 356 136zM196 136h24c6.656 0 12-5.344 12-12v-24c0-6.656-5.344-12-12-12h-24c-6.656 0-12 5.344-12 12v24C184 130.7 189.3 136 196 136zM460 88h-24c-6.656 0-12 5.344-12 12v24c0 6.656 5.344 12 12 12h24c6.656 0 12-5.344 12-12v-24C472 93.34 466.7 88 460 88zM512 .0001H64c-35.35 0-64 28.65-64 64V240c0 35.35 28.65 64 64 64h448c35.35 0 64-28.65 64-64V64C576 28.65 547.3 .0001 512 .0001zM528 240C528 248.8 520.8 256 512 256H64C55.18 256 48 248.8 48 240V64c0-8.822 7.178-16 16-16h448c8.822 0 16 7.178 16 16V240zM140 88h-24c-6.656 0-12 5.344-12 12v24c0 6.656 5.344 12 12 12h24c6.656 0 12-5.344 12-12v-24C152 93.34 146.7 88 140 88zM400 176h-224C167.1 176 160 183.1 160 192v16C160 216.9 167.1 224 176 224h224C408.9 224 416 216.9 416 208V192C416 183.1 408.9 176 400 176zM374.4 359.7L288 452.7l-86.41-93.06c-9.062-9.719-24.22-10.27-33.94-1.266c-9.688 9.031-10.25 24.16-1.251 33.86l104 112.1C274.1 509.2 281.3 512 288 512s13.03-2.786 17.59-7.676l104-112.1c9-9.703 8.436-24.83-1.251-33.86C398.6 349.4 383.4 349.1 374.4 359.7z"/></svg>

<svg xmlns="http://www.w3.org/2000/svg" viewBox="0 0 576 512"><!-- Font Awesome Pro 6.0.0-alpha2 by @fontawesome - https://fontawesome.com License - https://fontawesome.com/license (Commercial License) --><path d="M276 136H300C306.656 136 312 130.656 312 124V100C312 93.344 306.656 88 300 88H276C269.344 88 264 93.344 264 100V124C264 130.656 269.344 136 276 136ZM356 136H380C386.656 136 392 130.656 392 124V100C392 93.344 386.656 88 380 88H356C349.344 88 344 93.344 344 100V124C344 130.656 349.344 136 356 136ZM196 136H220C226.656 136 232 130.656 232 124V100C232 93.344 226.656 88 220 88H196C189.344 88 184 93.344 184 100V124C184 130.656 189.344 136 196 136ZM460 88H436C429.344 88 424 93.344 424 100V124C424 130.656 429.344 136 436 136H460C466.656 136 472 130.656 472 124V100C472 93.344 466.656 88 460 88ZM512 0H64C28.654 0 0 28.654 0 64V240C0 275.346 28.654 304 64 304H512C547.346 304 576 275.346 576 240V64C576 28.654 547.346 0 512 0ZM528 240C528 248.822 520.822 256 512 256H64C55.178 256 48 248.822 48 240V64C48 55.178 55.178 48 64 48H512C520.822 48 528 55.178 528 64V240ZM140 88H116C109.344 88 104 93.344 104 100V124C104 130.656 109.344 136 116 136H140C146.656 136 152 130.656 152 124V100C152 93.344 146.656 88 140 88ZM400 176H176C167.125 176 160 183.125 160 192V208C160 216.875 167.125 224 176 224H400C408.875 224 416 216.875 416 208V192C416 183.125 408.875 176 400 176ZM374.406 359.672L288 452.734L201.594 359.672C192.531 349.953 177.375 349.406 167.656 358.406C157.969 367.438 157.406 382.625 166.406 392.328L270.406 504.328C274.969 509.219 281.312 512 288 512S301.031 509.219 305.594 504.328L409.594 392.328C418.594 382.625 418.031 367.438 408.344 358.406C398.625 349.406 383.438 349.953 374.406 359.672Z"/></svg>
